X:1
T:An Old Man He Courted Me
F:http://www.folkinfo.org/songs
B:The Penguin Book of Canadian Folk Songs.
S:
M:3/8
L:1/8
K:F
C|C F3/2 F1/2|E F G|A3/2 G1/2 F|
w:An old man he court-ed me, fal the dol
G E C|C F3/2 F1/2|E F G|A3/2 G1/2 A|
w:dood-le, An old man he court-ed me, hi der-ry
B2 G|G c B|A F F|B c B|
w:down; An old man he court-ed me all for to
G E C|C F F|E F G|c3/2 B1/2 G|F2||
w:mar-ry me; Maids while you're young nev-er wed an old man. 